X: 25269
T: Man In The Moon, The
R: waltz
M: 3/4
K: Gmajor
D2|G3 A G2|F2 E2 D2|G2 A2 B2|c3 B c2|
d4 c2|B2 c2 A2|G3 A G2|F2 E2 D2|
G3 A G2|F2 E2 D2|G2 A2 B2|c3 B c2|
d4 c2|B2 c2 A2|G6|G2 B2 c2||
d2 z2 d2|d4 z2|c2 A2 B2|c6|
B3 A Bc|d2 B2 G2|E2 F2 G2|A2 F2 D2|
G3 A G2|F2 E2 D2|G2 A2 B2|c3 B c2|
d4 c2|B2 c2 A2|G6|G4||

